X:18001
T:Rocking Carol
T:Little Jesus, Sweetly Sleep
R:March
C:Trad.
O:Czech
Z:Paul Hardy's Xmas Tunebook 2019 (see www.paulhardy.net). Creative Commons cc by-nc-sa licenced.
M:2/2
L:1/8
Q:1/4=120
K:D
|"G"G2B2 d2d2|"C"e2ec "G"d4|"C"e2ec "G"d4|"Am"=c2cA "G"B2BG|"D"A2AF "G"G4|
"G"B2d2 "C"=c2B2|"Am"A2B2 "D"AFD2|"G"B2d2 "C"=c2B2|"Am"A2B2 "D"AFD2|
"G"G2B2 d2d2|"C"e2ec "G"d4|"Am"=c2cA "G"B2BG|"D"A2AF "G"G4|]
W:Little Jesus, sweetly sleep, do not stir; We will lend a coat of fur.
W:We will rock you, rock you, rock you; We will rock you, rock you, rock you.
W:See the fur to keep you warm; Snugly round your tiny form
% --------------------------------- S ---------------------------------------

